frontend/icons/web-page.svg

<symbol id="web-page" xmlns="http://www.w3.org/2000/svg" viewBox="0 0 44 36"><g fill="none" fill-rule="evenodd" stroke="#005AF0" stroke-linecap="round" stroke-linejoin="round" stroke-width="2" transform="translate(1 1)"><path d="M0 0h42v8.4H0V0zm0 8.4v25.2h42V8.4H0zM8.4 15.4h25.2M8.4 21h25.2M8.4 26.6h14"/><circle cx="4.2" cy="4.2" r="1" fill="#005AF0"/><circle cx="9.1" cy="4.2" r="1" fill="#005AF0"/><circle cx="14" cy="4.2" r="1" fill="#005AF0"/></g></symbol>

<svg id="web-page" viewBox="0 0 44 36" version="1.1" xmlns="http://www.w3.org/2000/svg" xmlns:xlink="http://www.w3.org/1999/xlink">
    <!-- Generator: Sketch 52.4 (67378) - http://www.bohemiancoding.com/sketch -->
    <g id="web-page" stroke="none" stroke-width="1" fill="none" fill-rule="evenodd" stroke-linecap="round" stroke-linejoin="round">
        <g id="Artboard" transform="translate(-763.000000, -4396.000000)" stroke="#005AF0" stroke-width="2">
            <g id="Group-6" transform="translate(764.000000, 4148.000000)">
                <g id="page-1756_9ff987db-2414-4cbc-87d8-27d377991547" transform="translate(0.000000, 249.000000)">
                    <path d="M0,0 L42,0 L42,8.4 L0,8.4 L0,0 Z M0,8.4 L0,33.6 L42,33.6 L42,8.4 L0,8.4 Z" id="web-page"></path>
                    <path d="M8.4,15.4 L33.6,15.4 M8.4,21 L33.6,21 M8.4,26.6 L22.4,26.6" id="Shape"></path>
                    <circle id="Oval" fill="#005AF0" cx="4.2" cy="4.2" r="1"></circle>
                    <circle id="Oval" fill="#005AF0" cx="9.1" cy="4.2" r="1"></circle>
                    <circle id="Oval" fill="#005AF0" cx="14" cy="4.2" r="1"></circle>
                </g>
            </g>
        </g>
    </g>
</svg>
